X:17532
T:Tolos Trabayos (CT 015) (Arrg.)
R:Añada
C:Tradicional
S:Música Tradicional Asturiana, (C) Tello & Tito. Asturies, 2001.
S:http://pagina.de/MusTradAst <telloytito@asturies.org>
N:Canción de cuna (Añada), dictada por Valentina Fernández García, de cincuenta y ocho años, de Lebinco, Ayuntamiento de Aller.
O:Lebinco (Ayer)
A:Asturies
G:Arrg.
Z:Cancioneru de Torner 015
M:6/8
L:1/8
Q:3/8=80
W:Sim            Mim Sim
W:Tolos trabayos son
W:Sim               Mim
W:para les pobres muyeres
W:Mim             Sim
W:asperando peles nueches
W:Mim       La      Sim
W:que los maridos vinieren.
W:
W:Unos veníen borrachos
W:otros veníen alegres
W:otros decíen: rapazos
W:vamos matar les muyeres.
W:
W:Ellos piden de cenar
W:y elles qué dayos nun tienen
W:que ficisti de los dos riales
W:muyer, ¿qué gobiernu tienes?
W:
W:cuatro cuartos cuesta'l pan
W:nueve la carne son trece
W:dos el pimientu son quince
W:dos el xabón diecisiete.
W:
W:Echa la cuenta maríu
W:echa la cuenta si quieres
W:que nun te faltará un cuartu
W:anque los diaños te lleven.
K:Bb
"Gm"ddd "Gm"dcB|"Cm"c3 "Gm"B3|"Gm"ddd "Gm"dcB|"Cm"c3 "Cm"c3|
"Cm"ccc "Cm"cBc|"Gm"d3 "Gm"d3|"Cm"ccc "F"cBA|"Gm"G3 "Gm"G3||


